!!!COM: Haydn, Franz Joseph
!!!CDT: 1732/03/31/-1809/05/31/
!!!CNT: Austrian
!!!OTL: Sonata No. 42 in G major
!!!SCT: Hob. XVI:27
!!!OMV: Mvmt. 3
!!!OMD: Presto
!!!ODT: 1776///
!!!SMS: Universal Edition 1, Haydn Piano Sonatas, Vol. 1, No. 1
!!!ONB: Stich und Druck von Jos. Eberle & Co. Wien VII. Seidengasse 3-9
**kern	**kern	**dynam
*staff2	*staff1	*staff1/2
*Ipiano	*Ipiano	*Ipiano
*>[A,A,B,B,C,C,D,D,E,E,F,F,G]	*>[A,A,B,B,C,C,D,D,E,E,F,F,G]	*>[A,A,B,B,C,C,D,D,E,E,F,F,G]
*>norep[A,B,C,D,E,F,G]	*>norep[A,B,C,D,E,F,G]	*>norep[A,B,C,D,E,F,G]
*>A	*>A	*>A
*clefF4	*clefG2	*clefG2
*k[f#]	*k[f#]	*k[f#]
*G:	*G:	*G:
*M2/4	*M2/4	*M2/4
*MM144	*MM144	*MM144
8r	8d''/	mf
=1	=1	=1
4G\ 4B\	(8g/L	.
.	8b/	.
8r	8dd/	.
8B\ 8d\	8g/J	.
=2	=2	=2
4A^\ &(4c^\&)	4g^/	.
4r	8f#/L)	.
.	8d''/J	.
=3	=3	=3
4r	(8a\L	.
.	8cc\	.
8r	8ee\	.
8F#\	8a\ 8cc\J	.
=4	=4	=4
4G^\	4a^\ 4cc^\	.
&(8GG/&)	8g/ 8b/)	.
8r	8b''\	.
*clefG2	*	*
=5	=5	=5
4g/	(8bb\L	.
.	8gg\	.
8r	8dd#\	.
8g/	8ee\J	.
=6	=6	=6
&(4f#/&)	8aa\L	.
.	8ff#\	.
8r	8cc#\	.
8f#/	8ddn\J	.
=7	=7	=7
4g/	8ee\	.
.	4gg\	.
4a/	.	.
.	8cc#\	.
*clefF4	*	*
=8	=8	=8
&((4d\&)	4dd\)	.
8D\)	8r	.
=:|!|:	=:|!|:	=:|!|:
*>B	*>B	*>B
8r	8d''/	p
=9	=9	=9
2r	(8dd/L	.
.	8b/	.
.	8g#/	.
.	8e/J	.
=10	=10	=10
8r	4d/	.
(8G#\L	.	.
8A\)	8c#/L)	.
8AA''\J	8cn''/J	.
=11	=11	=11
2r	(8cc/L	.
.	8a/	.
.	8f#/	.
.	8d/J	.
=12	=12	=12
8r	4c/	.
(8F#\L	.	.
8G\J)	8B/)	.
8BB''/	8d''/	.
=13	=13	=13
4C/	(8e/L	<
.	8g#/	.
8r	8a/	.
8c#\	8gn/J	.
=14	=14	=14
&(4d\&)	8f#/L	.
.	8a#/	.
8r	8b/	.
8d#\	8an/J	.
=15	=15	=15
8e\L	8g/L	.
8f#\	8dd/	.
8g\	8cc/	.
8c#\J	8b/J	.
=16	=16	=16
[4dn\	(4g/) 4b/	.
&(8d\]&)	8f#/) 8a/	.
8r	8d''/	.
=17	=17	=17
4G\ 4B\	(8g/L	mf
.	8b/	.
8r	8dd/	.
8B\ 8d\	8g/J	.
=18	=18	=18
4A\ &(4c\&)	4g/	.
4r	8f#/L)	.
.	8d''/J	.
=19	=19	=19
4r	(8a\L	.
.	8cc\	.
8r	8ee\	.
8F#\	8a\ 8cc\J	.
=20	=20	=20
4G^\	4a^\ 4cc^\	.
&(8GG/&)	8g/ 8b/)	.
8r	8g''/	.
=21	=21	=21
4r	(8cc\L	<
.	8ee\	.
8r	8gg\	.
8c\	8ee\J	.
=22	=22	=22
&(4B\&)	8cc#\L	.
.	8dd\	.
8r	8gg\	.
8G\	8bb\J	.
=23	=23	=23
&(4c\&)	8dd#\L	.
.	8ee\	.
8r	8ccc\)	.
8D''\	8cc''\ 8ff#''\J	.
=24	=24	=24
(4G\	4b\ 4gg\	.
8GG/)	8r	.
=:|!|:	=:|!|:	=:|!|:
*>C	*>C	*>C
8r	8d''/	mf
=25	=25	=25
4G\ 4B\	(16g/LL	.
.	16d/	.
.	16b/	.
.	16g/JJ	.
8r	8dd''/L)	.
8B\ 8d\	8g''/J	.
=26	=26	=26
4A\ 4c\	(4g/	.
4r	8f#''/L)	.
.	8a''/J	.
=27	=27	=27
4r	(8cc\L	.
.	8cc\ 8ee\	.
8r	8b\ 8dd\	.
8F#\	8a\ 8cc\J	.
=28	=28	=28
4G^\	4a^\ 4cc^\	.
&(8GG/&)	8g/ 8b/)	.
8r	8b''\	.
=29	=29	=29
4g\	(16bb\LL	f
.	16gg\	.
.	16ff#\	.
.	16ee\JJ	.
4r	16dd#\LL	.
.	16ee\	.
.	16dd#\	.
.	16ee\JJ	.
=30	=30	=30
4f#\	16aa\LL	.
.	16ff#\	.
.	16ee\	.
.	16ddn\JJ	.
4r	16cc#\LL	.
.	16dd\	.
.	16cc#\	.
.	16dd\JJ	.
=31	=31	=31
8g\	(8b\L)	.
8r	8gg\J)	.
8A\	8r	.
8r	8g''/ 8cc#''/	.
=32	=32	=32
(16D\LL	4f#/ 4dd/	.
16F#\	.	.
16A\	.	.
16d\JJ	.	.
8D\)	8r	.
=:|!|:	=:|!|:	=:|!|:
*>D	*>D	*>D
8r	8d''/	mf
=33	=33	=33
4r	(16dd\LL	.
.	16b\	.
.	16a\	.
.	16b\JJ	.
8r	8e/L)	.
8G#\ 8d\	8b''/J	.
=34	=34	=34
[4A\ (4d\	(4b\	.
8A\] 8c\)	8cc/L)	.
8r	8c''/J	.
=35	=35	=35
4r	(16cc/LL	.
.	16a/	.
.	16g/	.
.	16a/JJ	.
8r	8d/L)	.
8F#\ 8c\	8a''/J	.
=36	=36	=36
[4G\ (4c\	(4a/	.
8G\] 8B\)	8b/)	.
(8B\	8g''/	.
=37	=37	=37
4c\)	16f#/LL	<
.	16e/	.
.	16d#/	.
.	16e/JJ	.
8r	&(4a/&)	.
(8c#\	.	.
=38	=38	=38
4d\)	16g/LL	.
.	16f#/	.
.	16e#/	.
.	16f#/JJ	.
8r	&(4b/&)	.
(8d#\	.	.
=39	=39	=39
8e\L	8g/L	.
8f#\	8dd/	.
8g\	8cc/	.
8c#\J	8b/J	.
=40	=40	=40
[4d\)	4g/ 4b/	.
8d\]	&(8f#/&) 8a/	.
8r	8d''/	.
=41	=41	=41
4G\ 4B\	(16g/LL	.
.	16d/)	.
.	16b/	.
.	16g/JJ	.
8r	&(8dd/L&)	.
8B\ 8d\	8g''/J	.
=42	=42	=42
4A\ 4c\	(4g/	.
4r	8f#/L)	.
.	8a''/J	.
=43	=43	=43
4r	(8cc\L	.
.	8cc\ 8ee\	.
8r	8b\ 8dd\	.
8F#\	8a\ 8cc\J	.
=44	=44	=44
4G\	4a\ 4cc\	.
&(8GG/&)	8g/ 8b/)	.
8r	8g''/	.
=45	=45	=45
4C\ 4c\	(16ee\LL	.
.	16dd#\	.
.	16ee\	.
.	16ff#\JJ	.
4r	16gg\LL	.
.	16ee\	.
.	16ddn\	.
.	16cc\JJ	.
=46	=46	=46
4BB\ 4B\	8dd\L	.
.	16gg\L	.
.	16bb\JJ	.
4r	8ddd''\)	>
.	8b\ (8dd\	.
=47	=47	=47
4c\	16b/ 16dd/LL	.
.	&(16a/&) 16cc/JJ	.
.	4g/ 4b/	.
4d\	.	.
.	8f#/ 8a/	.
=48	=48	=48
&(4G\&)	4g/)	.
8r	8r	.
=:|!|:	=:|!|:	=:|!|:
*>E	*>E	*>E
8r	8dd''\	f
=49	=49	=49
4G\ 4B\	(16gg\LL	.
.	16ff#\	.
.	16ee\	.
.	16dd\JJ	.
4r	16cc/LL	.
.	16b/	.
.	16a/	.
.	16g/JJ	.
=50	=50	=50
8A''\ 8c''\L	16f#/LL	.
.	16d/	.
8G''\ 8B''\	16g/	.
.	16d/JJ	.
8F#''\ 8A''\	16a/LL	.
.	16d/	.
8E''\ 8G''\J	16b/	.
.	16d/JJ	.
=51	=51	=51
4D\ 4F#\	(16cc/LL)	.
.	16b/	.
.	16a/	.
.	16g/JJ	.
4r	16f#/LL	.
.	16e/	.
.	16d/	.
.	16c/JJ	.
=52	=52	=52
16r	4B/)	.
(16GG/LL	.	.
16BB/	.	.
16D/JJ	.	.
4G\)	8r	.
.	8b\	.
=53	=53	=53
8g''\L	(16bb\LL	.
.	16b\	.
8f#''\	16aa\	.
.	16b\JJ	.
8e''\	16gg\LL	.
.	16b\	.
8d#''\J	16ff#\	.
.	16b\JJ	.
=54	=54	=54
8e\L	16gg\LL	.
.	16b\	.
8dn\	16gg#\	.
.	16b\JJ	.
8c#''\	16aa\LL	.
.	16a\	.
8e''\J	16ggn\	.
.	16a\JJ	.
=55	=55	=55
8d''\L	16ff#\LL	.
.	16a\	.
8G''\	16gg\	.
.	16ee\JJ	.
8A''\	16ff#\LL	.
.	16dd\	.
8AA''\J	16ee\	.
.	16cc#\JJ	.
=56	=56	=56
8D''/L	4.dd\)	.
8AA''/	.	.
8DD''/J	.	.
8r	8r	.
=57:|!|:	=57:|!|:	=57:|!|:
*>F	*>F	*>F
8r	8dd''\	.
*clefG2	*	*
=58	=58	=58
8b''/L	(16ddd\LL	.
.	16dd\	.
8a''/	16cccn\	.
.	16dd\JJ	.
8g#''/	8bb''\L)	.
8dd/J	(16gg#\L	.
.	16ee\JJ	.
=59	=59	=59
8cc''\L	16aa\LL	.
.	16ee\	.
8b''\	16bb\	.
.	16ee\JJ	.
8a''\J	8ccc''\L)	.
8r	8cc''\J	.
=60	=60	=60
8a''/L	(16ccc\LL	.
.	16cc\	.
8g''/	16bb\	.
.	16cc\JJ	.
8f#''/	8aa''\L)	.
8cc''/J	(16ff#\L	.
.	16dd\JJ	.
=61	=61	=61
8b''/L	16gg\LL	.
.	16dd\	.
8a''/	16aa\	.
.	16dd\JJ	.
8g''/J	8bb''\)	.
8B''/	(16dd\LL	mf
.	16g\JJ	.
=62	=62	=62
8c''/L	16ee\LL	.
.	16g\	.
8d''/	16ffn\	.
.	16g\JJ	.
8c''/	8ee''\)	.
8c#''/J	(16ee\LL	.
.	16a\JJ	.
=63	=63	=63
8d''/L	16ff#\LL	.
.	16a\	<
8e''/	16gg\	.
.	16a\JJ	.
8d''/	8ff#''\L)	.
8d#''/J	(16ff#\L	.
.	16b\JJ	.
=64	=64	=64
4e/	16gg\LL	.
.	16b\	.
.	16cc\	.
.	16aa\JJ)	.
8f#/L	(8cc\L	.
8g/J	8b\J	>
=65	=65	=65
&([4d/&) 4g/	4b\	.
8d/] 8f#/	8a/)	.
8r	8dd''\	.
*clefF4	*	*
=66	=66	=66
4G\ 4B\	(16gg\LL	f
.	16ff#\	.
.	16ee\	.
.	16dd\JJ	.
4r	16cc/LL	.
.	16b/	.
.	16a/	.
.	16g/JJ	.
=67	=67	=67
8A''\ 8c''\L	16f#/LL	.
.	16d/	.
8G''\ 8B''\	16g/	.
.	16d/JJ	.
8F#''\ 8A''\	16a/LL	.
.	16d/	.
8E''\ 8G''\J	16b/	.
.	16d/JJ	.
=68	=68	=68
4D\ 4F#\	(16cc/LL)	.
.	16b/	.
.	16a/	.
.	16g/JJ	.
4r	16f#/LL	.
.	16e/	.
.	16d/	.
.	16c/JJ	.
=69	=69	=69
8GG''/L	16B/LL	.
.	16G/	.
8AA''/	16c/	.
.	16G/JJ	.
8BB''/	16d/LL	.
.	16G/	.
8GG''/J	16B/	.
.	16G/JJ	.
=70	=70	=70
8C''/L	16e/LL	.
.	16G/	.
8BB''/	16d#/	.
.	16G/JJ	.
8C''/	16e/LL	.
.	16G/	.
8AA''/J	16f#/	.
.	16G/JJ	.
=71	=71	=71
4BB/	16g/LL	.
.	16f#/	.
.	16e/	.
.	16dn/JJ	.
4r	16c/LL	.
.	16B/	.
.	16A/	.
.	16G/JJ	.
=72	=72	=72
8r	(8A/L)	.
8C''/L	16c/L	.
.	16A/JJ)	.
8D''/	16B/LL	.
.	(16G/	.
8DD''/J	16A/	.
.	16F#/JJ)	.
=73	=73	=73
8GG''/L	4G/	.
8DD''/	.	.
8GGG''/J	8r	.
=:|!	=:|!	=:|!
*>G	*>G	*>G
8r	8d''/	mf
=74	=74	=74
4r	(8g/L	.
.	8b/	.
8r	8dd/	.
8B\ 8d\	8g/J	.
=75	=75	=75
4A\ &(4c\&)	4g/	.
4r	8f#/L)	.
.	8d''/J	.
=76	=76	=76
4r	(8a\L	.
.	8cc\	.
8r	8ee\	.
8F#\	8a\ 8cc\J	.
=77	=77	=77
4G\	4a\ 4cc\	.
&(8GG/&)	8g/ 8b/)	.
8r	8b''\	.
*clefG2	*	*
=78	=78	=78
4g/	8bb\L	.
.	(8gg\	.
8r	8dd#\	.
8g/	8ee\J	.
=79	=79	=79
&(4f#/&)	8aa\L	.
.	8ff#\	.
8r	8cc#\	.
8f#/	8ddn\J	.
=80	=80	=80
4g/	8ee\	.
.	4gg\	.
4a/	.	.
.	8cc#\	.
*clefF4	*	*
=81	=81	=81
&((4d\&)	4dd\)	.
8D\)	8r	p
8r	8d''/	.
=82	=82	=82
4r	(8g\L	.
.	8b-\	.
8r	8dd\	.
8B-\ 8d\	8g\J	.
=83	=83	=83
4A\ &(4c\&)	4g/	.
4r	8f#/L)	.
.	8d''/J	.
=84	=84	=84
2r	(8a\L	.
.	8cc\	.
.	8ee-\	.
.	8a\ 8cc\J	.
=85	=85	=85
8r	4a\ 4cc\	.
(8F#\	.	.
4G\)	8g/ 8b-/)	.
.	8g''/	.
=86	=86	=86
4r	(8b-\L	<
.	8dd\	.
8r	8ee-\	.
*clefG2	*	*
8g/	8bb-\J	.
=87	=87	=87
&(4fn/&)	8aa\L	.
.	8cc#\	.
8r	8dd\)	.
8f/	8ffn\ (8aa\J	.
=88	=88	=88
4g/	8ee\ 8gg\	.
.	4dd\ 4ffn\	>
4a/	.	.
.	8cc#\ 8ee\	.
*clefF4	*	*
=89	=89	=89
&((4d\&)	4dd\)	.
8D\)	8r	.
8r	8dd''\	mf
=90	=90	=90
2r	(8ffn\L	.
.	8a-\	.
.	8g\	.
.	8dd\J	.
=91	=91	=91
8r	4fn/	.
(8Bn\L	.	.
8c\J)	8e-/L)	.
8r	8ee-''/J	.
=92	=92	=92
8r	(4g/	.
(8c#\L	.	.
8d\J)	8f#\L)	.
8r	8aa''\J	.
=93	=93	=93
8r	(4cc\	.
8f#\L	.	.
8g\J	8b-\L)	.
8r	8dd''\J	<
=94	=94	=94
2r	(8ee-\L	.
.	8gg\	.
.	8bb-\	.
.	8dd\J	.
=95	=95	=95
8r	4cc#\	.
(8G\L	.	.
8F#\)	8dd\L)	.
8f#''\J	8ccn''\J	.
=96	=96	=96
(8g\L	(8b-/L	.
8B-\)	8g/)	.
(8c\	(8a/	.
8d\J)	8f#/J)	.
=97	=97	=97
8G/L	4g/	.
(8D/	.	.
8GG/J)	8r	.
8r	8dd''\	.
=98	=98	=98
2r	(8ffn\L	p
.	8a-\	.
.	8g\	.
.	8dd\J	.
=99	=99	=99
8r	4fn/	.
(8Bn\L	.	.
8c\J)	8e-/L)	.
8r	8ee-''/J	.
=100	=100	=100
8r	(4g/	.
8c#\L	.	.
8d\J	8f#\L)	.
8r	8aa''\J	.
=101	=101	=101
8r	(4cc\	.
(8f#\L	.	.
8g\J)	8b-\L)	.
8r	8dd''\J	<
=102	=102	=102
2r	(8ee-\L	.
.	8gg\	.
.	8bb-\	.
.	8dd\J	.
=103	=103	=103
8r	4cc#\	.
(8G\L	.	.
8F#\)	8dd\L)	.
8f#''\J	8ccn''\J	.
=104	=104	=104
(8g\L	(8b-/L	>
8B-\)	8g/)	.
(8c\	(8a/	.
8d\J)	8f#/J)	.
=105	=105	=105
8G/L	4g/	.
(8D/	.	.
8GG/J)	8r	.
8r	8d''/	f
=106	=106	=106
(16G\LL	8g''/L	.
16d\	.	.
16Bn\	8bn/	.
16d\JJ	.	.
16G\LL	8dd''/	.
16d\	.	.
16B\	8g''/J	.
16d\JJ	.	.
=107	=107	=107
16A\LL	4g/	.
16d\	.	.
16c\	.	.
16d\JJ	.	.
16A\LL	&(8f#/L&)	.
16d\	.	.
16c\	8a''/J	.
16d\JJ	.	.
=108	=108	=108
(16F#\LL)	8cc''\L	.
16d\	.	.
16A\	8ff#''\	.
16d\JJ	.	.
16F#\LL	8aa''\	.
16d\	.	.
16A\	8cc''\J	.
16d\JJ	.	.
=109	=109	=109
16G\LL	4cc\	.
16d\	.	.
16B\	.	.
16d\JJ	.	.
16G\LL	&(8b\L&)	.
16d\	.	.
16B\	8b''\J	.
16d\JJ	.	.
=110	=110	=110
(16G\LL)	8bb''\L	.
16e\	.	.
16B\	8gg''\	.
16e\JJ	.	.
16G\LL	8dd#\	.
16e\	.	.
16B\	&(8ee\J&)	.
16e\JJ	.	.
=111	=111	=111
16F#\LL	8aa''\L	.
16d\	.	.
16A\	8ff#''\	.
16d\JJ	.	.
16F#\LL	8cc#\	.
16d\	.	.
16A\	&(8ddn\J&)	.
16d\JJ	.	.
=112	=112	=112
(4G\)	8ee\L	.
.	&(8gg\J&)	.
4A\	8r	.
.	8g/ 8cc#/	.
=113	=113	=113
*	*^	*
(16D\LL)	4f#/ 4dd/	4r	.
16F#\	.	.	.
16A\	.	.	.
16d\JJ	.	.	.
8D''\)	8r	8r	.
8r	8r	16g\LL	.
.	.	16b\JJ	.
=114	=114	=114	=114
2r	16dd/LL	2r	p
.	16gg/	.	.
.	16bb/	.	.
.	16ddd/JJ	.	.
.	16ccc/LL	.	.
.	16bb/	.	.
.	16aa/	.	.
.	16gg/JJ	.	.
=115	=115	=115	=115
2r	4gg/	[4d\ (4b\	>
.	&(8ff#/&)	8d\] 8a\)	.
.	(16ccc/LL	8r	.
.	16aa/JJ	.	.
=116	=116	=116	=116
2r	16ff#/LL	8r	.
.	16cc/JJ	.	.
.	8r	16a\LL	.
.	.	16f#\JJ	.
.	8r	8d''\L)	.
.	8a/ 8dd/	8f#\J	.
=117	=117	=117	=117
4r	4a/ (4cc/	4g\	>
8G\	8g/ 8b/)	8r	.
8r	8r	8b''\	.
*	*v	*v	*
=118	=118	=118
4GG/ 4G/	(16bb\LL	mf
.	16gg\	.
.	16ff#\	.
.	16ee\JJ	.
8r	16dd#\LL	.
.	16ee\	.
8G\	16bb\	.
.	16gg\JJ	.
=119	=119	=119
4F#\	16aa\LL	.
.	16gg\	.
.	16ff#\	.
.	16ee\JJ	.
4G\	16ddn\LL	.
.	16cc#\	.
.	16b\	.
.	16a\JJ	.
=120	=120	=120
4A\	16g/LL	.
.	16f#/	.
.	16e/	.
.	16d/JJ	.
4AA/	16c#/LL	.
.	16B/	.
.	16A/	.
.	16G/JJ	.
=121	=121	=121
4D\	4F#/)	.
&(8DD/&)	8r	.
8r	8dd''\	.
=122	=122	=122
16G#\LL	8ddd''\L	f
16e\	.	.
16B\	8bb''\	.
16e\JJ	.	.
16G#\LL	8gg#''\	.
16e\	.	.
16B\	8ee''\J	.
16e\JJ	.	.
=123	=123	=123
16A\LL	(4dd\	.
16e\	.	.
16c#\	.	.
16e\JJ	.	.
16A\LL	8cc#\L)	.
16e\	.	.
16cn\	8ccn''\J	.
16e\JJ	.	.
=124	=124	=124
16F#\LL	8ccc''\L	.
16d\	.	.
16A\	8aa''\	.
16d\JJ	.	.
16F#\LL	8ff#''\	.
16d\	.	.
16A\	8dd''\J	.
16d\JJ	.	.
=125	=125	=125
16G\LL	(4cc\	.
16d\	.	.
16B\	.	.
16d\JJ	.	.
16G\LL	8b\L)	.
16d\	.	.
16B\	8dd''\J	.
16d\JJ	.	.
=126	=126	=126
4c\	(16ee\LL	mf
.	16cc\	.
.	16b\	.
.	16a\JJ	.
8r	16g#\LL	.
.	16a\	.
8c\	16ee\	.
.	16a\JJ	.
=127	=127	=127
&(4d\&)	16ff#\LL	.
.	16dd\	.
.	16cc\	.
.	16b\JJ	.
8r	16a#\LL	.
.	16b\	.
8d\	16ff#\	.
.	16b\JJ	.
=128	=128	=128
4e\	16gg\LL	.
.	16ee\	.
.	16dd\	.
.	16cc\JJ	.
8f#\L	16aa\LL	.
.	16cc\	.
8g\J	16gg\	.
.	16b\JJ	.
=129	=129	=129
*^	*	*
4g/	4.d\	4b\	.
&(8f#/&)	.	8a/)	.
8r	8r	8d''/	.
*v	*v	*	*
=130	=130	=130
(16G\LL	8g''/L	f
16d\	.	.
16B\	8b''/	.
16d\JJ	.	.
16G\LL	8dd''/	.
16d\	.	.
16B\	8g''/J	.
16d\JJ	.	.
=131	=131	=131
16A\LL	4g/	.
16d\	.	.
16c\	.	.
16d\JJ	.	.
16A\LL	&(8f#/L&)	.
16d\	.	.
16c\	8a''/J	.
16d\JJ	.	.
=132	=132	=132
16F#\LL)	8cc''\L	.
(16d\	.	.
16A\	8ff#''\	.
16d\JJ	.	.
16F#\LL	8aa''\	.
16d\	.	.
16A\	8cc''\J	.
16d\JJ	.	.
=133	=133	=133
16G\LL	4cc\	.
16d\	.	.
16B\	.	.
16d\JJ	.	.
16G\LL	&(8b/L&)	.
16d\	.	.
16B\	8g''/J	.
16d\JJ)	.	.
=134	=134	=134
(16C\LL	8cc''\L	.
16G\	.	.
16E\	8ee''\	.
16G\JJ	.	.
16C\LL	8gg''\	.
16G\	.	.
16E\	8ee''\J	.
16G\JJ	.	.
=135	=135	=135
4BB/)	8dd\L	.
.	16gg\L	.
.	16bb\JJ	.
8r	&(8ddd''\&)	.
8BB/	8b\ 8dd\	.
=136	=136	=136
(4C/	(16b/ 16dd/LL	.
.	16a/) 16cc/JJ	.
.	4g/ 4b/	.
4D\	.	.
.	8f#/ 8a/	.
=137	=137	=137
*	*^	*
4G\	&(4g/&)	4r	.
8GG/)	8r	8r	.
8r	8r	16e\LL	p
.	.	16g#\JJ	.
=138	=138	=138	=138
2r	16r	16b\	.
.	16dd/LL	16r	.
.	16gg#/	8r	.
.	16bb/JJ	.	.
.	&(8ddd''/L&)	8r	.
.	8b''/ 8dd''/J	8g#''\	.
=139	=139	=139	=139
4r	4b/ (4dd/	4a\	.
8A\	8a/ 8cc/)	4r	.
8r	(16ccc/LL	.	.
.	16aa/JJ	.	.
=140	=140	=140	=140
2r	16ff#/LL	8r	.
.	16cc/JJ	.	.
.	8r	16a\LL	.
.	.	16f#\JJ	.
.	8r	8d''\L)	.
.	8a''/ 8cc''/	8f#''\J	.
=141	=141	=141	=141
4r	(4a/	4g\	.
8G\	8g/ 8b/)	4r	.
8B\	8dd''\	.	.
*	*v	*v	*
=142	=142	=142
4c\	(16ee\LL	mf
.	16cc\	.
.	16b\	.
.	16a\JJ	.
8r	16g#\LL	.
.	16a\	.
8c\	16ee\	.
.	16a\JJ	.
=143	=143	=143
&(4d\&)	16ff#\LL	.
.	16dd\	.
.	16cc\	.
.	16b\JJ	.
8r	16a#\LL	.
.	16b\	.
8d\	16ff#\	.
.	16b\JJ	.
=144	=144	=144
4e\	16gg\LL	.
.	16ee\	.
.	16dd\	.
.	16cc\JJ	.
8f#\L	16aa\LL	.
.	16cc\	.
8g\J	16gg\	.
.	16b\JJ	.
=145	=145	=145
*^	*	*
4g/	4.d\	4b\	.
&(8f#/&)	.	8a/)	.
8r	8r	8d''/	.
*v	*v	*	*
=146	=146	=146
(16G\LL	8g''/	f
16d\	.	.
16B\	8b''/	.
16d\JJ	.	.
16G\LL	8dd''/	.
16d\	.	.
16B\	8g''/	.
16d\JJ	.	.
=147	=147	=147
16A\LL	4g/	.
16d\	.	.
16c\	.	.
16d\JJ	.	.
16A\LL	&(8f#/L&)	.
16d\	.	.
16c\	8a''/J	.
16d\JJ	.	.
=148	=148	=148
16F#\LL	8cc''\L	.
16d\)	.	.
16A\	8ff#''\	.
16d\JJ	.	.
16F#\LL	8aa''\	.
16d\	.	.
16A\	8cc''\J	.
16d\JJ	.	.
=149	=149	=149
16G\LL	(4cc\	.
16d\	.	.
16B\	.	.
16d\JJ	.	.
16G\LL	8b/L)	.
16d\	.	.
16B\	8g''/J	.
&(16d\JJ&)	.	.
=150	=150	=150
16C\LL	8cc''\L	ff
(16G\	.	.
16E\	8ee''\	.
16G\JJ	.	.
16C\LL	8gg''\	.
16G\	.	.
16E\	8ee''\J	.
16G\JJ	.	.
=151	=151	=151
4BB/)	8dd\L	.
.	16gg\L	.
.	16bb\JJ	.
8r	&(8ddd''\&)	.
(8BB/	8b\ 8dd\	.
=152	=152	=152
4C/	16b/ 16dd/LL	>
.	16a/ 16cc/JJ	.
.	4g/ 4b/	.
4D/	.	.
.	8c/ 8f#/ 8a/	.
=153	=153	=153
4GG/) 4G/	4B/ 4d/ &(4g/&)	.
8r	8r	.
==	==	==
*-	*-	*-
!!!ENC: Craig Stuart Sapp
!!!END: 2008/07/03/
